X: 36010
T: Savages Of Roscommon, The
R: slide
M: 12/8
K: Gmajor
B|A2 G D2 B A2 G D2 B|DEF GAB c2 B A2 c|
B2 A E2 c B2 A E2 F|DD/D/D DED B2 A G2 B|
A2 G D2 B A2 G D3|D/D/EF GAB E3- E2 ^D|
E2 c A2 c d2 B GFE|DD/D/D DD/E/F G3- G3||
B3 A3 GBG F3|BcB BcB d2 c Ace|
a3 g3 faf e2 ^c|ded d^cd B2 D GB/=c/d|
B3 A3 GA/B/G D3|GB/c/d gf=f e3- e3|
a2 g f^ef g2 d B^AB|d2 c A^GA =G3- G2||

